svgs/sharp-solid/bold.svg

<svg xmlns="http://www.w3.org/2000/svg" viewBox="0 0 384 512"><!--! Font Awesome Pro 6.6.0 by @fontawesome - https://fontawesome.com License - https://fontawesome.com/license (Commercial License) Copyright 2024 Fonticons, Inc. --><path d="M0 32l32 0 48 0 16 0 128 0c70.7 0 128 57.3 128 128c0 31.3-11.3 60.1-30 82.3c37.1 22.4 62 63.1 62 109.7c0 70.7-57.3 128-128 128L96 480l-16 0-48 0L0 480l0-64 32 0 16 0 0-160L48 96 32 96 0 96 0 32zM224 224c35.3 0 64-28.7 64-64s-28.7-64-64-64L112 96l0 128 112 0zM112 288l0 128 144 0c35.3 0 64-28.7 64-64s-28.7-64-64-64l-32 0-112 0z"/></svg>

<svg xmlns="http://www.w3.org/2000/svg" viewBox="0 0 384 512"><!--! Font Awesome Pro 6.4.2 by @fontawesome - https://fontawesome.com License - https://fontawesome.com/license (Commercial License) Copyright 2023 Fonticons, Inc. --><path d="M0 32H32 80 96 224c70.7 0 128 57.3 128 128c0 31.3-11.3 60.1-30 82.3c37.1 22.4 62 63.1 62 109.7c0 70.7-57.3 128-128 128H96 80 32 0V416H32 48V256 96H32 0V32zM224 224c35.3 0 64-28.7 64-64s-28.7-64-64-64H112V224H224zM112 288V416H256c35.3 0 64-28.7 64-64s-28.7-64-64-64H224 112z"/></svg>
